X:1
T:Christ’s Little Soldiers
T:Christ’s Little Soldiers
T:James Ramsey Murray
T:Julia A. Mathews, 1877
T:Public Domain Courtesy of the Cyber Hymnal™
T:Public Domain Courtesy of the Cyber Hymnal™
C:James Ramsey Murray
Z:Public Domain
Z:Courtesy of the Cyber Hymnal™
%%score ( 1 2 ) ( 3 4 )
L:1/8
Q:1/4=105
M:4/4
K:Eb
V:1 treble 
V:2 treble 
V:3 bass 
V:4 bass 
V:1
 [GB]>[FA] | [EG]2 [EG]2 [EG]3 [DF] | E6 [B,D][CE] | [DF]2 [DF]2 [DB]3 [FA] | [EG]6 [EG]>[FA] | %5
w: 1.~We are|sol- diers of the|Lord, ’Neath His|flag we’re called to|fight; Sin and|
w: 2.~Strong and|sub- tle is our|foe, But our|Lord is strong- er|still; He will|
w: 3.~Though we|fal- ter on the|road, He will|ne- ver chide or|frown, For He|
w: 4.~All He|asks is loy- al|love, Ear- nest|ef- fort for the|right; For the|
 [GB]2 [GB]2 [Ee]3 [Ed] | [Ec]6 [EB]>[EA] | [EG]2 [GB]2 [FA]3 [DF] | E6 ||"^Refrain" [DF][EG] | %10
w: e- vil are our|foes, We are|bat- tling for the|right.||
w: guide us as we|go, He’ll de-|fend us from all|ill.|Come and|
w: knew how weak we|were When He|chose us for His|own.||
w: bat- tle is His|own, We shall|win it by His|might.||
 [FA][FA][FA][FA] [FA]2 [EG][FA] | [GB][GB][GB][GB] [GB]2 [EG][FA] | %12
w: ||
w: join our lit- tle band, Come and|join our lit- tle band, We are|
w: ||
w: ||
 [GB]2 ([EG][FA]) ([GB][Ac]) ([GB][EG]) | [DF]6 E[EF] | [EG][EG][EG][EG] [EG]2 [EB][Ee] | %15
w: |||
w: sure to * win * the *|day; We have|naught to dread or fear, We have|
w: |||
w: |||
 [Ed][Ec][Ec][Ec] [Ec]2 [EA][Ec] | [Ec][EB][EG][EB] [DB][DA][B,D][B,F] | E6 |] %18
w: |||
w: naught to dread or fear, For our|Sav- ior, bless- èd Sav- ior leads the|way.|
w: |||
w: |||
V:2
 x2 | x8 | E6 x2 | x8 | x8 | x8 | x8 | x8 | E6 || x2 | x8 | x8 | x8 | x6 E x | x8 | x8 | x8 | E6 |] %18
V:3
 [E,B,]>[E,B,] | [E,B,]2 [E,B,]2 [B,,B,]3 [B,,A,] | [E,G,]6 [B,,B,][B,,B,] | %3
 [B,,B,]2 [B,,B,]2 [B,,F,]3 [B,,B,] | [E,B,]6 [E,B,]>[E,E] | [E,E]2 [E,B,]2 [G,B,]3 [G,B,] | %6
 A,6 [A,,C]>[A,,C] | [B,,B,]2 [B,,B,]2 [B,,B,]3 [B,,A,] | [E,G,]6 || [B,,B,][B,,B,] | %10
 [B,,B,][B,,B,][B,,B,][B,,B,] [B,,B,]2 [E,B,][E,E] | [E,E][E,E][E,E][E,E] [E,E]2 [E,B,][E,E] | %12
 [E,E]2 [E,B,]2 (B,E) (EB,) | [B,,B,]6 [E,G,][E,A,] | %14
 [E,B,][E,B,][E,B,][E,B,] [E,B,]2 [G,,B,][G,,B,] | %15
 [A,,A,][A,,A,][A,,A,][A,,A,] [A,,A,]2 [A,,C][A,,A,] | %16
 [B,,G,][B,,G,][B,,B,][B,,G,] [B,,F,][B,,B,][B,,F,][B,,A,] | [E,G,]6 |] %18
V:4
 x2 | x8 | x8 | x8 | x8 | x8 | A,6 x2 | x8 | x6 || x2 | x8 | x8 | x4 E,2 E,2 | x8 | x8 | x8 | x8 | %17
 x6 |] %18

